!!!!SEGMENT: pl-sa--102-a-iii-2--006_anonim--missa-de-nativitate-agnus-dei.krn
!!!cenid: 18xx:1277
!!!COM: Anonim
!!!COM-rismid: pe30004985
!!!CDT:
!!!CNT:
!!!OPR: Missa de Nativitate
!!!OTL: Agnus Dei
!!!OMV: 006
!!!PDT: 1814
!!!AGN: Sacred; Mass
!!!SMS-siglum: PL-SA
!!!SMS-shelfmark: 102/A III 2
!!!SMS-shelfwork: 001-006 M
!!!SMS-variant: Violino Primo PL-SA 102/A III 2:15-17; Violino 2do PL-SA 102/A III 2:19-21
!!!SMS-altvar: Violino Primo PL-SA 102/A III 2:11-14; Violino 2do PL-SA 102/A III 2:23-26
!!!NIFC-rismid: 1001035508
!!!URL-scan: http://bc.bdsandomierz.pl/dlibra/publication/1458/edition/1426/content
!!!ONB-nifc: UWAGA: części Mszy: 1. Kyrie, 2. Et in terra, 3. Patrem, 4. Sanctus, 5. Benedictus, 6. Agnus Dei
**kern	**dynam	**kern	**dynam	**kern	**dynam	**kern	**text	**kern	**text
*part5	*part5	*part4	*part4	*part3	*part3	*part2	*part2	*part1	*part1
*staff5	*	*staff4	*	*staff3	*	*staff2	*staff2	*staff1	*staff1
*Iempty	*	*Ivioln	*	*Ivioln	*	*Ivox	*	*Ivox	*
*I"Baſso.	*	*I"Violino 2do.	*	*I"Violino Primo	*	*I"Canto 2do.	*	*I"Canto.	*
*I'bc	*	*I'vl II	*	*I'vl I	*	*I'C II	*	*I'C	*
*clefF4	*	*clefG2	*	*clefG2	*	*clefC1	*	*clefC1	*
*k[f#]	*	*k[f#]	*	*k[f#]	*	*k[f#]	*	*k[f#]	*
*D:	*	*D:	*	*D:	*	*D:	*	*D:	*
*M2/4	*	*M2/4	*	*M2/4	*	*M2/4	*	*M2/4	*
*	*	*	*	*	*below	*	*	*	*
=1	=1	=1	=1	=1	=1	=1	=1	=1	=1
!	!	!	!	!	!	!LO:TX:a:t=2	!	!	!
!LO:TX:a:B:t=Adagio	!	!LO:TX:t=P:problem:brak oznaczenia tempa	!	!LO:TX:a:B:t=Tarde	!	!LO:TX:a:B:t=Ada&colon;	!	!LO:TX:a:B:t=Ada&colon;	!
!	!	!	!	!	!	!LO:N:vis=0	!	!	!
2GG/	.	4d/ 4B/	.	4g/	.	1r	.	8g\	A-
.	.	.	.	.	.	.	.	16a\LL	-gnus
.	.	.	.	.	.	.	.	16b\JJ	.
.	.	4r	.	4r	.	.	.	8g\	De-
.	.	.	.	.	.	.	.	8d/	-i
=2	=2	=2	=2	=2	=2	=2	=2	=2	=2
!LO:TX:t=P:problem:zbędny pusty takt w vl II	!	!LO:TX:a:t=1	!	!LO:TX:t=P:problem:zbędny pusty takt w vl II	!	!LO:TX:t=P:problem:zbędny pusty takt w vl II	!	!LO:TX:t=P:problem:zbędny pusty takt w vl II	!
2ryy	.	2r	.	2ryy	.	.	.	2ryy	.
=3	=3	=3	=3	=3	=3	=3	=3	=3	=3
4GG/	.	16B/LL	.	(16b\LL	.	2ryy	.	16b\LL	De-
.	.	16c#X/	.	16cc#X\	.	.	.	16cc#X\JJ	-i
.	.	16d/	.	16dd\	.	.	.	16dd\LL	qui
.	.	16c#X/JJ	.	16cc#\JJ)	.	.	.	16cc#X\JJ	.
!LO:TX:t=P:problem:mixed beam	!	!	!	!LO:TX:t=P:problem:mixed beam	!	!	!	!	!
8D\L	.	8d/L	.	8dd\L	.	.	.	8dd\	tol-
8DD/J	.	8d/J	.	8d/J	.	.	.	8d/	-lis
=4	=4	=4	=4	=4	=4	=4	=4	=4	=4
!	!	!	!	!	!	!LO:SIC:s:=:v:pec-	!	!	!
8D\	.	8a/	.	8cc\|	.	8a\	pe-	8cc\	pec-
8r	.	8r	.	8r	.	16a\	-ca-	16cc\	-ca-
.	.	.	.	.	.	16f#\	-ta	16a\	-ta
!	!	!	!	!	!	!LO:SIC:s:=:v:pec-	!	!	!
*	*	*	*	*	*	*	*ij	*	*ij
8GG/	.	8g/	.	8b\|	.	8g\	pe-	8b\	pec-
8r	.	8r	.	8r	.	16g\	-ca-	16b\	-ca-
.	.	.	.	.	.	16g\	-ta	16g\	-ta
*	*	*	*	*	*	*	*Xij	*	*Xij
=5	=5	=5	=5	=5	=5	=5	=5	=5	=5
8D\L	.	(16f#/LL	.	(16a/LL	.	8d/L	mun-	16a\LL	mun-
.	.	16e/	.	16g/	.	.	.	16g\JJ	.
8D\J	.	16f#/	.	16a/	.	8d/J	-di	16a\LL	-di
.	.	16g/JJ)	.	16b/JJ)	.	.	.	16b\JJ	.
!LO:TX:t=P:problem:mixed beam	!	!	!	!	!	!	!	!	!
8G\L	.	8B/L	.	8g/L	.	8g\	pec-	8g\	pec-
8GG/J	.	16g/L	.	16b/L	.	16g\	-ca-	16b\LL	.
.	.	16b/JJ	.	16dd/JJ	.	16b\	-ta	16dd\JJ	.
=6	=6	=6	=6	=6	=6	=6	=6	=6	=6
8D\	.	8a/	.	8cc\|	.	8a\	pec-	8cc\	-ca-
8r	.	8r	.	8r	.	16a\	-ca-	16cc\LL	.
.	.	.	.	.	.	16f#\	-ta	16a\JJ	.
!	!	!	!	!	!	!	!	!LO:LB:g=original	!
*	*	*	*	*	*	*	*ij	*	*
8GG/	.	8g/	.	8b\|	.	8g\	pec-	8b\	.
8r	.	8r	.	8r	.	16g\	-ca-	16b\LL	-ta
.	.	.	.	.	.	16d/	-ta	16g\JJ	.
*	*	*	*	*	*	*	*Xij	*	*
=7	=7	=7	=7	=7	=7	=7	=7	=7	=7
8BB/L	.	8g/L	.	8b\L	.	8f#/L	mun-	8b\L	mun-
8C#X/J	.	8e/J	.	8cc#X\J	.	8e/J	.	8cc#X\J	.
4D\	.	4f#/	.	4dd\	.	4f#/	-di	4dd\	-di
!	!	!	!	!	!	!LO:LB:g=original	!	!	!
=8	=8	=8	=8	=8	=8	=8	=8	=8	=8
!LO:TX:t=P:problem:mixed beam	!	!	!	!	!	!	!	!	!
8D\L	.	4.f#/	.	4.dd\	.	4.f#/	mi-	4.dd\	mi-
8F#X\	.	.	.	.	.	.	.	.	.
8A\	.	.	.	.	.	.	.	.	.
8AA/J	.	8e/	.	8cc#X\	.	8e/	-se-	8cc#X\	-se-
=9	=9	=9	=9	=9	=9	=9	=9	=9	=9
!LO:TX:t=P:problem:mixed beam	!	!	!	!	!	!	!	!	!
8D\L	.	4.f#/	.	4.dd\	.	4.f#/	-re-	4.dd\	-re-
8F#\	.	.	.	.	.	.	.	.	.
8A\	.	.	.	.	.	.	.	.	.
8AA/J	.	8e/	.	8cc#X\	.	8e/	-re	8cc#X\	-re
=10	=10	=10	=10	=10	=10	=10	=10	=10	=10
8G\L	.	(16b/LL	.	(16dd\LL	.	4d/	n-	16dd\LL	no-
.	.	16a/	.	16ccn\	.	.	.	16ccn\JJ	.
8D\J	.	16f#/	.	16a\	.	.	.	16a\LL	.
.	.	16g/JJ)	.	16b\JJ)	.	.	.	16b\JJ	.
!LO:TX:t=P:problem:mixed beam	!	!	!	!	!	!	!	!	!
8GG/L	.	4B/	.	4g/	.	4g/	-bis	4g\	-bis
8G\J	.	.	.	.	.	.	.	.	.
!	!	!LO:LB:g=original	!	!	!	!	!	!	!
=11	=11	=11	=11	=11	=11	=11	=11	=11	=11
!LO:TX:b:t=pedal	!	!	!	!	!	!LO:TX:a:t=6	!	!LO:TX:a:t=6.	!
!	!	!	!	!	!LO:DY:t=for	!LO:N:vis=00	!	!LO:N:vis=00	!
2GG/	.	8d/L 8B/	.	8g/L	f	0r	.	0r	.
.	.	8d/ 8B/	.	16b/L	.	.	.	.	.
.	.	.	.	16dd/JJ	.	.	.	.	.
.	.	8d/ 8c/	.	16dd\LL	.	.	.	.	.
.	.	.	.	16cc\	.	.	.	.	.
.	.	8d/J 8c/	.	16a\	.	.	.	.	.
.	.	.	.	16f#\JJ	.	.	.	.	.
=12	=12	=12	=12	=12	=12	=12	=12	=12	=12
2GG/	.	8d/L 8B/	.	16g/LL	.	.	.	.	.
.	.	.	.	16d/	.	.	.	.	.
.	.	8d/ 8B/	.	16g/	.	.	.	.	.
.	.	.	.	16b/JJ	.	.	.	.	.
!	!	!	!	!LO:LB:g=original	!	!	!	!	!
.	.	8d/ 8c/	.	(16dd\LL	.	.	.	.	.
.	.	.	.	16cc\	.	.	.	.	.
.	.	8d/J 8c/	.	16a\	.	.	.	.	.
.	.	.	.	16f#\JJ)	.	.	.	.	.
!LO:LB:g=original	!	!	!	!	!	!	!	!	!
=13	=13	=13	=13	=13	=13	=13	=13	=13	=13
4GG/	.	4d/ 4B/	.	(8g/L	.	.	.	.	.
.	.	.	.	8b/J)	.	.	.	.	.
4r	.	4d/ 4c/	.	4d/	.	.	.	.	.
=14	=14	=14	=14	=14	=14	=14	=14	=14	=14
4GG/	.	4d/ 4B/	.	(8g/L	.	.	.	.	.
.	.	.	.	8b/J)	.	.	.	.	.
4r	.	4d/ 4c/	.	4d/	.	.	.	.	.
=15	=15	=15	=15	=15	=15	=15	=15	=15	=15
!	!	!	!	!	!	!LO:N:vis=0	!	!LO:N:vis=0	!
2GG/	.	8d/L 8B/	.	8g/L	.	1r	.	1r	.
.	.	8d/ 8B/	.	16b/L	.	.	.	.	.
.	.	.	.	16dd/JJ	.	.	.	.	.
.	.	8d/ 8c/	.	16dd\LL	.	.	.	.	.
.	.	.	.	16cc\	.	.	.	.	.
.	.	8d/J 8c/	.	16a\	.	.	.	.	.
.	.	.	.	16f#\JJ	.	.	.	.	.
=16	=16	=16	=16	=16	=16	=16	=16	=16	=16
8G\L	.	4d/ 4B/	.	4g/	.	.	.	.	.
8D\J	.	.	.	.	.	.	.	.	.
4GG/	.	4r	.	4r	.	.	.	.	.
=17	=17	=17	=17	=17	=17	=17	=17	=17	=17
4G\	.	(8b\L	p	8dd\L	p	8b\L	A-	8dd\L	A-
.	.	8cc\J)	.	8ee\J	.	8cc\J	.	8ee\J	.
4r	.	4b\|	.	4dd\	.	4b\	-gnus	4dd\	-gnus
=18	=18	=18	=18	=18	=18	=18	=18	=18	=18
8r	.	8b\L|	.	(8dd\L	.	8b\	De-	8dd\L	De-
8G\L	.	8b\J|	.	8gg\	.	8b\	-i	8gg\J	-i
8G\	.	(8a\L	.	8ff#\	.	8a\	qui	8ff#\L	qui
8G\J	.	8cc\J)	.	8ee\J)	.	8cc\	.	8ee\J	.
=19	=19	=19	=19	=19	=19	=19	=19	=19	=19
4GG/	.	(8b\L	.	8dd\L	.	8b\L	tol-	8dd\L	tol-
.	.	8cc\J)	.	8ee\J	.	8cc\J	.	8ee\J	.
4r	.	4b\|	.	4dd\	.	4b\	-lis	4dd\	-lis
!	!	!	!	!	!	!	!	!LO:LB:g=original	!
=20	=20	=20	=20	=20	=20	=20	=20	=20	=20
8r	.	(8b\L	.	8dd\L	.	8b\L	pec-	8dd\L	pec-
8GG/L	.	8cc\	.	8ee\	.	8cc\J	.	8ee\J	.
8GG/	.	8b\	.	8dd\	.	8b\L	-ca-	8dd\L	-ca-
8GG/J	.	8a\J)	.	8cc\J	.	8a\J	-ta	8cc\J	-ta
=21	=21	=21	=21	=21	=21	=21	=21	=21	=21
8G\L	.	(8g/L	.	(8b\L	.	8g\L	mun-	8b\L	mun-
8D\	.	8b/J)	.	8dd\J)	.	8b\J	.	8dd\J	.
8F#\	.	4f#/	.	4a/	.	4f#/	-di	4a\	-di
8D\J	.	.	.	.	.	.	.	.	.
!	!	!	!	!	!	!LO:LB:g=original	!	!	!
=22	=22	=22	=22	=22	=22	=22	=22	=22	=22
8G\L	.	(8g/L	.	(8b\L	.	8g\	mi-	8b\L	pec-
8D\	.	8b/	.	8dd\	.	8b\	-se-	8dd\J	.
8F#\	.	8f#/	.	8a\	.	8f#\	-re-	8a\L	-ca-
8D\J	.	8a/J)	.	8cc\J)	.	8a\	-re	8cc\J	-ta
!	!	!LO:LB:g=original	!	!	!	!	!	!	!
=23	=23	=23	=23	=23	=23	=23	=23	=23	=23
*	*	*^	*	*	*	*	*	*	*
4G\	.	(8g/L	4reyy	.	(8b\L	.	8g\L	no-	8b\L	mun-
.	.	8b/J)	.	.	8dd\J)	.	8b\J	.	8dd\J	.
8r	.	4a/	4f#\	.	4a/	.	4f#/	-bis	4a\	-di
8D\	.	.	.	.	.	.	.	.	.	.
*	*	*v	*v	*	*	*	*	*	*	*
=24	=24	=24	=24	=24	=24	=24	=24	=24	=24
4G\	.	(8g/L	.	(8b\L	.	8g\L	mi-	8b\L	mi-
.	.	8b/	.	8dd\	.	8b\J	-se-	8dd\J	-se-
8r	.	8a/	.	8a\	.	8f#\L	-re-	8a\L	-re-
8G\	.	8cc/J)	.	8cc\J)	.	8a\J	-re	8cc\J	-re
=25	=25	=25	=25	=25	=25	=25	=25	=25	=25
8B\L	.	(8g/L	.	(8b\L	.	8g\	mi-	8b\	mi-
8A\	.	8f#/	.	8a\	.	8f#\	-se-	8a\	-se-
8B\	.	8g/	.	8b\	.	8g\	-re-	8b\	-re-
8c#X\J	.	8e/J)	.	8cc#X\J)	.	8e/	-re	8cc#X\	-re
!LO:LB:g=original	!	!	!	!	!	!	!	!	!
=26	=26	=26	=26	=26	=26	=26	=26	=26	=26
!LO:TX:t=P:problem:mixed beam	!	!	!	!	!	!	!	!	!
8d\L	.	8f#/L	.	8dd\L|	.	8f#/	no-	8dd\	no-
8D/J	.	8f#/J	.	8dd\J|	.	8f#/	-bis	8dd\	-bis
!	!	!	!	!LO:LB:g=original	!LO:DY:t=for	!	!	!	!
8D/L	.	8f#/L	.	8dd\L	f	4r	.	4r	.
!	!	!	!LO:DY:t=for	!	!	!	!	!	!
8D/J	.	16a/L	f	16ff#\L	.	.	.	.	.
.	.	16g/JJ	.	16dd\JJ	.	.	.	.	.
=27	=27	=27	=27	=27	=27	=27	=27	=27	=27
*	*	*2\right	*	*	*	*	*	*	*
*	*	*tremolo	*	*	*	*	*	*	*
*	*	*^	*	*	*	*	*	*	*
!	!	!	!	!	!	!	!LO:TX:a:t=15.	!	!LO:TX:a:t=11	!
!	!	!	!	!	!	!	!LO:N:vis=00	!	!LO:N:vis=00	!
8r	.	8a/L	8e\L	.	16cc#X\LL	.	0r	.	0r	.
.	.	.	.	.	16dd\	.	.	.	.	.
8AA/L	.	8a/	8e\	.	16ee\	.	.	.	.	.
.	.	.	.	.	16ff#\JJ	.	.	.	.	.
8C#X/	.	8a/	8e\	.	16gg\LL	.	.	.	.	.
.	.	.	.	.	16ff#\	.	.	.	.	.
8E/J	.	8a/J	8e\J	.	16gg\	.	.	.	.	.
.	.	.	.	.	16ee\JJ	.	.	.	.	.
=28	=28	=28	=28	=28	=28	=28	=28	=28	=28	=28
8r	.	8a/L	8f#\L	.	8ff#\L	.	.	.	.	.
8D\L	.	8a/	8f#\	.	8dd\	.	.	.	.	.
8F#\	.	8a/	8f#\	.	8dd\	.	.	.	.	.
8A\J	.	8a/J	8f#\J	.	8dd\J	.	.	.	.	.
=29	=29	=29	=29	=29	=29	=29	=29	=29	=29	=29
*	*	*	*tremolo	*	*	*	*	*	*	*
8r	.	8a/L	8e\L	.	16cc#X\LL	.	.	.	.	.
.	.	.	.	.	16dd\	.	.	.	.	.
8AA/L	.	8a/	8e\	.	16ee\	.	.	.	.	.
.	.	.	.	.	16ff#\JJ	.	.	.	.	.
8C#X/	.	8a/	8e\	.	16gg\LL	.	.	.	.	.
.	.	.	.	.	16ff#\	.	.	.	.	.
8E/J	.	8a/J	8e\J	.	16gg\	.	.	.	.	.
.	.	.	.	.	16ee\JJ	.	.	.	.	.
*	*	*v	*v	*	*	*	*	*	*	*
*	*	*Xtremolo	*	*	*	*	*	*	*
=30	=30	=30	=30	=30	=30	=30	=30	=30	=30
*tremolo	*	*	*	*	*	*	*	*	*
8D/L	.	(16dd\LL	.	(16ff#\LL	.	.	.	.	.
.	.	16ee\J)	.	16gg\J)	.	.	.	.	.
8D/	.	8ff#\J|	.	8aa\J|	.	.	.	.	.
!	!	!LO:TX:t=P:problem:mixed beam	!	!LO:TX:t=P:problem:mixed beam	!	!	!	!	!
8D/	.	8f#/L|	.	8a/L|	.	.	.	.	.
8D/J	.	8ff#\J|	.	8aa\J|	.	.	.	.	.
=31	=31	=31	=31	=31	=31	=31	=31	=31	=31
!	!	!	!	!	!	!LO:N:vis=00	!	!LO:N:vis=00	!
8C#X/L	.	16ee\LL	.	(16gg\LL	.	0r	.	0r	.
.	.	(16dd\J	.	16ff#\J)	.	.	.	.	.
8C#/	.	8ee\J)|	.	8gg\J|	.	.	.	.	.
!	!	!LO:TX:t=P:problem:mixed beam	!	!LO:TX:t=P:problem:mixed beam	!	!	!	!	!
8C#/	.	8f#/L|	.	8a/L|	.	.	.	.	.
8C#/J	.	8ee\J|	.	8gg\J|	.	.	.	.	.
=32	=32	=32	=32	=32	=32	=32	=32	=32	=32
8D/L	.	(16dd\LL	.	(16ff#\LL	.	.	.	.	.
.	.	16cc#X\J)	.	16ee\J)	.	.	.	.	.
8D/	.	8dd\J|	.	8ff#\J|	.	.	.	.	.
!	!	!LO:TX:t=P:problem:mixed beam	!	!LO:TX:t=P:problem:mixed beam	!	!	!	!	!
8D/	.	8f#/L|	.	8a/L|	.	.	.	.	.
8D/J	.	8dd\J|	.	8ff#\J|	.	.	.	.	.
=33	=33	=33	=33	=33	=33	=33	=33	=33	=33
8AA/L	.	(16a\LL	.	16ee\LL	.	.	.	.	.
.	.	16b\	.	16dd\	.	.	.	.	.
8AA/	.	16cc#X\	.	16cc#X\	.	.	.	.	.
.	.	16b\JJ)	.	16b\JJ	.	.	.	.	.
8AA/	.	4a/	.	4a/	.	.	.	.	.
8AA/J	.	.	.	.	.	.	.	.	.
*Xtremolo	*	*	*	*	*	*	*	*	*
!	!	!LO:LB:g=original	!	!	!	!	!	!	!
=34	=34	=34	=34	=34	=34	=34	=34	=34	=34
*	*	*tremolo	*	*	*	*	*	*	*
*	*	*^	*	*	*	*	*	*	*
8r	.	8a/L	8e\L	.	(16a\LL	.	.	.	.	.
.	.	.	.	.	16cc#X\J)	.	.	.	.	.
8AA/L	.	8a/	8e\	.	8ee\J|	.	.	.	.	.
!	!	!	!	!	!LO:TX:t=P:problem:mixed beam	!	!	!	!	!
8C#X/	.	8a/	8e\	.	8a/L|	.	.	.	.	.
8AA/J	.	8a/J	8e\J	.	8gg\J|	.	.	.	.	.
=35	=35	=35	=35	=35	=35	=35	=35	=35	=35	=35
!	!	!	!	!	!	!	!LO:N:vis=00	!	!LO:N:vis=0	!
8r	.	8a/L	8f#\L	.	(16ff#\LL	.	0r	.	1r	.
.	.	.	.	.	16gg\J)	.	.	.	.	.
8D\L	.	8a/	8f#\	.	8aa\J|	.	.	.	.	.
8F#\	.	8a/	8f#\	.	8dd\L|	.	.	.	.	.
8D\J	.	8a/J	8f#\J	.	8ff#\J|	.	.	.	.	.
!	!	!	!	!	!LO:LB:g=original	!	!	!	!	!
=36	=36	=36	=36	=36	=36	=36	=36	=36	=36	=36
*	*	*	*tremolo	*	*	*	*	*	*	*
8r	.	8a/L	8e\L	.	(16ee\LL	.	.	.	.	.
.	.	.	.	.	16ff#\J)	.	.	.	.	.
8AA/L	.	8a/	8e\	.	8gg\J|	.	.	.	.	.
8C#X/	.	8a/	8e\	.	8cc#X\L	.	.	.	.	.
8AA/J	.	8a/J	8e\J	.	8ee\J	.	.	.	.	.
*	*	*v	*v	*	*	*	*	*	*	*
*	*	*Xtremolo	*	*	*	*	*	*	*
=37	=37	=37	=37	=37	=37	=37	=37	=37	=37
4D\	.	4f#/	.	4dd\	.	.	.	2r	.
4r	.	(16b/LL	.	(16dd\LL	.	.	.	.	.
.	.	16g/	.	16b\	.	.	.	.	.
.	.	16a/	.	16ccn\	.	.	.	.	.
.	.	16f#/JJ)	.	16a\JJ)	.	.	.	.	.
!LO:LB:g=original	!	!	!	!	!	!	!	!LO:LB:g=original	!
=38	=38	=38	=38	=38||:	=38	=38	=38	=38	=38
*	*	*tremolo	*	*	*	*	*	*	*
4GG/	p	8d/L 8B/	.	4g/	.	.	.	4g\	A-
.	.	8d/ 8B/	.	.	.	.	.	.	.
4r	.	8d/ 8B/	.	8b/L	.	.	.	8b\	.
.	.	8d/J 8B/	.	8dd/J	.	.	.	8dd\	-gnus
=39	=39	=39	=39	=39	=39	=39	=39	=39	=39
!	!	!	!	!	!	!LO:N:vis=0	!	!	!
8r	.	8d/L 8c/	.	16dd\LL	.	1r	.	16dd\LL	De-
.	.	.	.	16cc#X\	.	.	.	16cc#X\	.
8D\L	.	8d/ 8c/	.	16ee\	.	.	.	16ee\	.
.	.	.	.	16cc#\JJ	.	.	.	16cc#\JJ	.
8D\	.	8d/ 8c/	.	4a/	.	.	.	4a\	-i
8D\J	.	8d/J 8c/	.	.	.	.	.	.	.
=40	=40	=40	=40	=40:||	=40	=40	=40	=40	=40
!LO:TX:t=P:problem:mixed beam	!	!	!	!LO:TX:t=P:problem:powtórzenie tt. 37-38 oznaczone znakiem repetycji	!	!	!	!	!
8GG/L	.	8d/L 8B/	.	4g/yy	.	.	.	8g\	De-
8G\J	.	8d/ 8B/	.	.	.	.	.	8g\	.
4r	.	8d/ 8B/	.	8b/Lyy	.	.	.	8b\	-i
.	.	8d/J 8B/	.	8dd/Jyy	.	.	.	8dd\	qui
=41	=41	=41	=41	=41	=41	=41	=41	=41	=41
8r	.	8d/L 8c/	.	16dd\LLyy	.	2r	.	16dd\LL	tol-
.	.	.	.	16cc#X\yy	.	.	.	16cc#X\	.
8D\L	.	8d/ 8c/	.	16ee\yy	.	.	.	16ee\	.
.	.	.	.	16cc#\JJyy	.	.	.	16cc#\JJ	.
8D\	.	8d/ 8c/	.	4a/yy	.	.	.	4a\	-lis
8D\J	.	8d/J 8c/	.	.	.	.	.	.	.
*	*	*Xtremolo	*	*	*	*	*	*	*
=42	=42	=42	=42	=42	=42	=42	=42	=42	=42
8D\L	.	8g/L|	.	8b/L	.	8g\	pec-	8b\	pec-
!	!	!LO:SIC:s=8f#	!	!	!	!	!	!	!
8D\	.	8g/|	.	8a/	.	8d/	-ca-	8g\	-ca-
8F#\	.	(8a/	.	8cc/	.	8a\L	-ta	8ccn\	-ta
8G\J	.	8g/J)	.	8b/J	.	8g\J	.	8b\	.
!	!	!	!	!	!	!LO:LB:g=original	!	!	!
=43	=43	=43	=43	=43	=43	=43	=43	=43	=43
*2\right	*	*	*	*	*	*	*	*	*
*tremolo	*	*	*	*	*	*	*	*	*
8D\L	.	8g/L	.	8b/L	.	8g\	mun-	8b\	mun-
8D\	.	8f#/J	.	8a/J	.	8f#/	-di	8a\	-di
8D\	.	4r	.	4r	.	4r	.	4r	.
8D\J	.	.	.	.	.	.	.	.	.
=44	=44	=44	=44	=44	=44	=44	=44	=44	=44
!LO:TX:t=P:problem:mixed beam	!	!	!	!	!	!	!	!	!
8AA/L	.	(8e/L	.	8cc#X\L|	.	8e/	Do-	8cc#X\	Do-
8A\	.	8g/)	.	8ee\J|	.	8e/	-na	8ee\	-na
!	!	!	!	!	!	!	!	!LO:LB:g=original	!
8AA/	.	(8e/	.	8a/L	.	8e/	no-	8a\	no-
8A\J	.	8g/J)	.	16b/L	.	8e/	-bis	16b\LL	-bis
.	.	.	.	16cc#X/JJ	.	.	.	16cc#X\JJ	.
=45	=45	=45	=45	=45	=45	=45	=45	=45	=45
!LO:TX:t=P:problem:mixed beam	!	!	!	!	!	!	!	!	!
8D\L	.	(8f#/L	.	8dd\L	.	8f#/	pa-	8dd\	pa-
8d\	.	8a/	.	8ff#\J	.	8a\	-cem	8ff#\	-cem
8D\	.	8f#/	.	8r	.	4r	.	8r	.
8d\J	.	8a/J)	.	8dd\	.	.	.	8dd\	da
=46	=46	=46	=46	=46	=46	=46	=46	=46	=46
!LO:TX:t=P:problem:mixed beam	!	!	!	!	!	!	!	!	!
*	*	*tremolo	*	*	*	*	*	*	*
8AA/L	.	(8e/L	.	8cc#X\L|	.	8e/	pa-	8cc#X\	pa-
8A\	.	8g/	.	8ee\J|	.	8e/	-cem	8ee\	-cem
8AA/	.	8e/	.	8a/L	.	8e/	do-	8a\	do-
8A\J	.	8g/J)	.	16b/L	.	8e/	-na	16b\LL	-na
.	.	.	.	16cc#X/JJ	.	.	.	16cc#X\JJ	.
*	*	*Xtremolo	*	*	*	*	*	*	*
=47	=47	=47	=47	=47	=47	=47	=47	=47	=47
!	!	!LO:TX:t=P:problem:mixed beam	!	!	!	!	!	!	!
8D\L	.	8f#/L	.	8dd\L|	.	8f#/L	no-	8dd\	no-
8D\	.	8dd\J|	.	8ff#\J|	.	8f#/J	-bis	8dd\	-bis
!	!	!LO:LB:g=original	!	!	!	!	!	!	!
8D\	.	(16dd\LL	.	16ff#\LL	.	4r	.	4r	.
.	.	16cc#X\	.	16ee\	.	.	.	.	.
8D\J	.	16dd\	.	16ff#\	.	.	.	.	.
.	.	16ee\JJ)	.	16gg\JJ	.	.	.	.	.
=48	=48	=48	=48	=48	=48	=48	=48	=48	=48
!	!	!	!	!	!	!LO:TX:a:t=14.	!	!LO:TX:a:t=14.	!
!	!	!	!	!	!	!LO:N:vis=00	!	!LO:N:vis=00	!
8D\L	.	(16ff#\LL	.	16aa\LL	.	0r	.	0r	.
.	.	16ee\	.	16gg\	.	.	.	.	.
8D\	.	16ff#\	.	16aa\	.	.	.	.	.
.	.	16gg\JJ)	.	16bb\JJ	.	.	.	.	.
8D\	.	8.ff#\L	.	8.aa\L	.	.	.	.	.
8D\J	.	.	.	.	.	.	.	.	.
.	.	16ee\Jk	.	16gg\Jk	.	.	.	.	.
=49	=49	=49	=49	=49	=49	=49	=49	=49	=49
8D\L	.	8dd\L|	.	8ff#\L	.	.	.	.	.
8D\	.	8dd\J|	.	8ff#\J	.	.	.	.	.
8D\	.	(16dd\LL	.	(16ff#\LL	.	.	.	.	.
.	.	16cc#X\	.	16ee\	.	.	.	.	.
8D\J	.	16dd\	.	16ff#\	.	.	.	.	.
.	.	16ee\JJ)	.	16gg\JJ)	.	.	.	.	.
!	!	!	!	!LO:LB:g=original	!	!	!	!	!
=50	=50	=50	=50	=50	=50	=50	=50	=50	=50
8D\L	.	8ff#\L	.	8aa\L	.	.	.	.	.
8D\	.	8gg\J	.	8bb\J	.	.	.	.	.
8D\	.	4ff#\	.	4aa\	.	.	.	.	.
8D\J	.	.	.	.	.	.	.	.	.
*Xtremolo	*	*	*	*	*	*	*	*	*
!LO:LB:g=original	!	!	!	!	!	!	!	!	!
=51	=51	=51	=51	=51||:	=51	=51	=51	=51	=51
*	*	*^	*	*	*	*	*	*	*
8D\|	.	8a/L	8f#\L	.	8ff#\L|	.	.	.	.	.
8r	.	8a/	8f#\	.	(16ff#\L	.	.	.	.	.
.	.	.	.	.	16dd\JJ)	.	.	.	.	.
8A\|	.	8a/	8g\	.	8gg\L	.	.	.	.	.
8r	.	8a/J	8g\J	.	16gg\L	.	.	.	.	.
.	.	.	.	.	16ee\JJ	.	.	.	.	.
=52	=52	=52	=52	=52	=52	=52	=52	=52	=52	=52
!	!	!	!	!	!	!	!LO:N:vis=00	!	!LO:N:vis=00	!
8D\|	.	8a/L	8f#\L	.	8ff#\L|	.	0r	.	0r	.
8r	.	8a/	8f#\	.	(16ff#\L	.	.	.	.	.
.	.	.	.	.	16dd\JJ)	.	.	.	.	.
8A\|	.	8a/	8e\	.	8ee\L|	.	.	.	.	.
8r	.	8a/J	8e\J	.	(16ee\L	.	.	.	.	.
.	.	.	.	.	16cc#X\JJ)	.	.	.	.	.
=53	=53	=53	=53	=53	=53:||	=53	=53	=53	=53	=53
!	!	!	!	!	!LO:TX:t=P:problem:powtórzenie tt. 50-51 oznaczone znakiem repetycji	!	!	!	!	!
4D/	.	8a/L	8f#\L	.	8ff#\Lyy|	.	.	.	.	.
.	.	8a/	8f#\	.	(16ff#\Lyy	.	.	.	.	.
.	.	.	.	.	16dd\JJ)yy	.	.	.	.	.
4AA/	.	8a/	8g\	.	8gg\Lyy	.	.	.	.	.
.	.	8a/J	8g\J	.	16gg\Lyy	.	.	.	.	.
.	.	.	.	.	16ee\JJyy	.	.	.	.	.
=54	=54	=54	=54	=54	=54	=54	=54	=54	=54	=54
4D/	.	8a/L	8f#\L	.	8ff#\Lyy|	.	.	.	.	.
.	.	8a/	8f#\	.	(16ff#\Lyy	.	.	.	.	.
.	.	.	.	.	16dd\JJ)yy	.	.	.	.	.
4AA/	.	8a/	8e\	.	8ee\Lyy|	.	.	.	.	.
.	.	8a/J	8e\J	.	(16ee\Lyy	.	.	.	.	.
.	.	.	.	.	16cc#X\JJ)yy	.	.	.	.	.
*	*	*v	*v	*	*	*	*	*	*	*
=55	=55	=55||:	=55	=55	=55	=55	=55	=55	=55
8D\L	.	8f#/L|	.	8dd\L|	.	.	.	.	.
8F#\J	.	8a/|	.	8ff#\J|	.	.	.	.	.
8AA/L	.	8e/|	.	8a/L	.	.	.	.	.
16BB/L	.	8a/J|	.	16b/L	.	.	.	.	.
16C#X/JJ	.	.	.	16cc#X/JJ	.	.	.	.	.
=56	=56	=56:||	=56	=56	=56	=56	=56	=56	=56
!	!	!LO:TX:t=P:problem:powtórzenie t. 55 oznaczone znakiem repetycji	!	!	!	!	!	!	!
!	!	!	!	!	!	!LO:N:vis=00	!	!LO:N:vis=00	!
8D\L	.	8f#/Lyy|	.	8dd\L|	.	0r	.	0r	.
8F#\J	.	8a/yy|	.	8ff#\J|	.	.	.	.	.
8AA/L	.	8e/yy|	.	8a/L	.	.	.	.	.
16BB/L	.	8a/Jyy|	.	16b/L	.	.	.	.	.
16C#X/JJ	.	.	.	16cc#X/JJ	.	.	.	.	.
=57	=57	=57	=57	=57	=57	=57	=57	=57	=57
*	*	*^	*	*	*	*	*	*	*
4D\	.	8a/L	8f#\L	.	8dd\L|	.	.	.	.	.
.	.	8a/	8f#\	.	8ff#\J|	.	.	.	.	.
4r	.	8a/	8g\	.	(16aa\LL	.	.	.	.	.
.	.	.	.	.	16gg\	.	.	.	.	.
.	.	8a/J	8g\J	.	16ee\	.	.	.	.	.
.	.	.	.	.	16cc#X\JJ)	.	.	.	.	.
!	!	!LO:LB:g=original	!	!	!	!	!	!	!	!
=58	=58	=58	=58	=58	=58	=58	=58	=58	=58	=58
4D\	.	8a/L	8f#\L	.	8dd\L|	.	.	.	.	.
.	.	8a/	8f#\	.	8ff#\J|	.	.	.	.	.
4r	.	8a/	8g\	.	(16aa\LL	.	.	.	.	.
.	.	.	.	.	16gg\	.	.	.	.	.
.	.	8a/J	8g\J	.	16ee\	.	.	.	.	.
.	.	.	.	.	16cc#X\JJ)	.	.	.	.	.
*	*	*v	*v	*	*	*	*	*	*	*
=59	=59	=59	=59	=59	=59	=59	=59	=59	=59
!LO:TX:b:t=pedal.	!	!	!	!	!	!	!	!	!
2D\	.	2f#/ 2A/	.	4.dd\	.	.	.	.	.
.	.	.	.	(16ee\LL	.	.	.	.	.
.	.	.	.	16ff#\JJ)	.	.	.	.	.
=60	=60	=60	=60	=60	=60	=60	=60	=60	=60
!	!	!	!	!	!	!LO:N:vis=0	!	!LO:N:vis=0	!
2D\	.	2f#/ 2A/	.	8dd\L|	.	1r	.	1r	.
.	.	.	.	(16ee\L	.	.	.	.	.
.	.	.	.	16ff#\JJ)	.	.	.	.	.
.	.	.	.	8dd\L|	.	.	.	.	.
.	.	.	.	(16ee\L	.	.	.	.	.
.	.	.	.	16ff#\JJ)	.	.	.	.	.
=61	=61	=61	=61	=61	=61	=61	=61	=61	=61
4D\	.	4f#/ 4A/	.	4dd\	.	.	.	.	.
4r	.	4r	.	4r	.	.	.	.	.
!	!	!LO:TX:b:t=Dona Nobis ut Kyrie allo.	!	!	!	!	!	!	!
==	==	==	==	==	==	==	==	==	==
*-	*-	*-	*-	*-	*-	*-	*-	*-	*-
!!!system-decoration: [(s1,s2)][(s3,s4)][(s5)]
!!!EED: Leszek Kubiak
!!!EST: 2021-01-08
!!!ENC: Andrzej Kubiczek
!!!END: 2020-12-06
!!!RDF**kern: | = vertical stroke
